img/header/logo.svg

<svg width="162" height="58" viewBox="0 0 162 58" fill="none" xmlns="http://www.w3.org/2000/svg">
<g clip-path="url(#clip0)">
<path fill-rule="evenodd" clip-rule="evenodd" d="M32.8246 12.6923C31.464 12.2482 30.7021 11.3044 29.5592 10.3607C28.9265 9.83325 27.5183 8.0151 26.457 8.02898C24.5045 8.02898 23.1303 12.9491 20.9058 13.3585C16.5926 14.1427 12.0618 13.1295 6.86434 13.3585C6.67386 12.4772 8.51067 10.8325 9.31342 9.88877C11.5108 9.68753 14.266 10.2704 16.1709 9.55567C19.3479 8.36209 21.7629 0.92299 25.3141 0.0624974C26.5046 -0.22896 28.6136 1.64468 29.5592 2.39415C30.7837 3.28108 31.9227 4.28489 32.9607 5.392C32.9131 7.76529 33.1852 10.5619 32.8246 12.6923Z" fill="#4C555B"/>
<path fill-rule="evenodd" clip-rule="evenodd" d="M44.0905 6.86304C45.2805 7.73435 46.4165 8.67994 47.492 9.69435C47.7437 12.4285 47.077 14.6769 47.6553 16.6893C48.1927 18.563 50.9956 20.159 52.4174 21.3526C54.2066 22.8724 56.6488 24.4615 56.8257 26.2103C57.1523 29.451 52.6691 31.8798 51.601 34.038C49.2404 33.8922 46.2607 34.3711 44.4171 33.7049C44.8252 32.317 45.7777 31.623 46.7029 30.5405C47.2607 29.8465 48.9683 28.4031 48.9887 27.3761C49.0227 25.2942 44.9069 23.9896 44.0905 21.88C43.87 21.1805 43.7598 20.4497 43.764 19.7149C43.6483 16.0786 44.1177 10.9643 44.0905 6.86304Z" fill="#4C555B"/>
<path fill-rule="evenodd" clip-rule="evenodd" d="M128.992 9.69451C134.57 8.50787 138.427 13.7472 135.849 19.1877C135.019 20.9295 132.55 22.1508 130.788 22.1855C126.345 22.2758 122.774 16.8421 125.563 12.0262C125.922 11.3961 126.417 10.8583 127.012 10.4541C127.606 10.0499 128.284 9.79003 128.992 9.69451ZM128.502 19.5208C134.196 23.7955 136.829 9.8541 129.645 11.6931C126.862 12.4009 126.216 17.8067 128.502 19.5208Z" fill="#4C555B"/>
<path fill-rule="evenodd" clip-rule="evenodd" d="M65.6421 9.69458H73.4792V11.6931H68.0912C67.7102 12.3038 68.03 13.6292 67.9279 14.5244C69.1933 14.8992 71.1253 14.5869 72.69 14.691V16.6895H68.1184C67.7374 17.3835 68.064 18.8477 67.9551 19.8539H73.8329V21.8525H65.6693L65.6421 9.69458Z" fill="#4C555B"/>
<path fill-rule="evenodd" clip-rule="evenodd" d="M75.772 9.69458H78.2211C79.1939 12.6994 80.4116 15.4543 81.3232 18.5216C82.541 15.7111 83.5274 12.6647 84.5887 9.69458H87.0378C85.6432 13.8583 83.9832 17.7929 82.4661 21.8525H80.3436C78.8061 17.7999 77.1326 13.886 75.772 9.69458Z" fill="#4C555B"/>
<path fill-rule="evenodd" clip-rule="evenodd" d="M89.48 9.69458H97.3171V11.6931H91.9291C91.5481 12.3038 91.8747 13.6292 91.7658 14.5244C93.0312 14.8992 94.9632 14.5869 96.5279 14.691V16.6895H91.9563C91.5753 17.3835 91.9018 18.8477 91.793 19.8539H97.6708V21.8525H89.5072L89.48 9.69458Z" fill="#4C555B"/>
<path fill-rule="evenodd" clip-rule="evenodd" d="M100.745 9.69438C103.623 9.75683 107.664 9.25718 109.072 11.0267C110.481 12.7963 109.95 16.3146 106.95 16.8559C108.025 18.5838 109.385 20.0342 110.351 21.8523H107.576C106.093 20.3673 105.855 17.6123 103.331 17.189C102.609 18.1189 103.195 20.3811 103.004 21.8523H100.718L100.745 9.69438ZM103.031 15.1904C105.487 15.4472 108.045 15.01 107.113 12.3591C106.338 11.5403 104.61 11.6652 103.031 11.6652V15.1904Z" fill="#4C555B"/>
<path fill-rule="evenodd" clip-rule="evenodd" d="M112.011 9.69458H114.624C115.481 11.478 116.61 12.9908 117.562 14.691C118.695 13.0911 119.731 11.4226 120.665 9.69458H123.277C121.603 13.5946 117.835 15.378 118.705 21.8525H116.42C117.318 15.378 113.658 13.5668 112.011 9.69458Z" fill="#4C555B"/>
<path fill-rule="evenodd" clip-rule="evenodd" d="M139.604 9.69458H141.89C144.163 12.2622 145.877 15.3919 147.931 18.1885V9.69458H150.217V21.8525C149.469 21.6513 148.714 22.1093 147.931 21.8525C146.741 21.45 145.591 18.7783 144.829 17.6888C143.632 15.9887 142.707 14.573 141.89 13.3586V21.8525H139.604V9.69458Z" fill="#4C555B"/>
<path fill-rule="evenodd" clip-rule="evenodd" d="M153.646 9.69458H161.49V11.6931H156.102C155.721 12.3038 156.041 13.6292 155.939 14.5244C157.204 14.8992 159.136 14.5869 160.701 14.691V16.6895H156.129C155.748 17.3835 156.075 18.8477 155.966 19.8539H161.844V21.8525H153.68L153.646 9.69458Z" fill="#4C555B"/>
<path fill-rule="evenodd" clip-rule="evenodd" d="M26.9467 15.357C28.6679 14.899 30.1849 16.7449 31.5183 17.8552C32.8517 18.9655 33.7633 19.8538 35.1103 21.0196C37.0628 22.7128 41.8113 25.7662 41.9677 27.848C42.0834 29.4302 40.3622 30.9639 39.3554 32.1783C36.9403 35.0859 35.4981 36.8832 33.151 39.6729C32.2871 40.693 30.9469 42.7332 29.5591 42.8373C28.0624 42.9414 26.2392 40.9775 25.314 40.1725C22.8377 38.0074 20.7492 36.0783 17.9667 33.6772C16.851 32.7126 14.9258 31.4219 14.8646 30.0132C14.7625 27.855 19.1164 24.0591 20.4158 22.5185C21.5927 21.1306 22.4567 19.9232 23.3547 18.8545C24.1234 17.9385 25.4977 15.7317 26.9467 15.357Z" fill="#DA0E15"/>
<path fill-rule="evenodd" clip-rule="evenodd" d="M5.23151 24.184C7.64657 24.2742 10.4834 23.9342 12.4155 24.5171C12.0141 25.905 11.0549 26.6683 10.1297 27.848C9.61944 28.4726 7.81665 29.9854 7.84386 31.0124C7.88468 32.7889 12.4971 34.7944 13.0686 36.675C14.4292 41.1787 12.157 45.4881 13.0686 50.9981C12.2046 51.1924 10.5923 49.3187 9.66707 48.4998C9.47658 45.7241 9.97321 43.4688 9.34053 41.5049C8.77588 39.7423 6.02066 38.0352 4.57842 36.8416C2.78923 35.3635 0.142862 33.8368 0.00680237 31.984C-0.142864 30.0131 4.0886 25.8842 5.23151 24.184Z" fill="#4C555B"/>
<path d="M112.991 31.1026C115.287 31.1026 117.148 29.6797 117.148 27.9244C117.148 26.1691 115.287 24.7461 112.991 24.7461C110.695 24.7461 108.834 26.1691 108.834 27.9244C108.834 29.6797 110.695 31.1026 112.991 31.1026Z" fill="#DA0E15"/>
<path fill-rule="evenodd" clip-rule="evenodd" d="M66.1321 26.5158C73.5202 26.9738 83.0648 24.9752 85.5615 30.1798C87.0446 33.2748 86.1466 37.6814 84.2553 39.8395C81.5954 42.8721 76.7176 43.3578 72.0099 43.3093V53.9891H65.9689C66.0777 44.8915 65.7512 35.3428 66.1321 26.5158ZM78.5408 37.841C80.2688 36.1061 80.4457 32.3796 78.2143 31.0126C76.7584 30.1174 74.6971 30.4158 72.1732 30.3186C71.7922 33.0389 72.1188 36.4809 72.0099 39.4787C74.6699 39.5273 76.9421 39.4163 78.5408 37.841Z" fill="#DA0E15"/>
<path fill-rule="evenodd" clip-rule="evenodd" d="M156.728 29.7007V33.5313C157.98 33.9199 159.939 33.5868 161.49 33.6978V37.1676H156.918C156.993 42.3444 154.701 53.0381 161.817 50.4913C162.191 51.2685 161.871 52.7605 161.98 53.8223C158.354 54.884 154 54.6897 152.02 52.3233C149.353 49.1312 151.66 42.6081 150.877 37.3341C150.381 36.9455 149.19 37.2716 148.428 37.1676V33.6978H150.877V30.2281C153.007 30.1934 154.687 29.7354 156.728 29.7007Z" fill="#DA0E15"/>
<path fill-rule="evenodd" clip-rule="evenodd" d="M105.317 33.3441V38.2017C103.826 37.6715 102.201 37.6799 100.715 38.2256C99.2288 38.7714 97.9716 39.8213 97.1537 41.1996V53.989H91.2759V33.6772H97.1537V37.1469C98.6503 35.4121 101.317 32.5461 105.317 33.3441Z" fill="#DA0E15"/>
<path fill-rule="evenodd" clip-rule="evenodd" d="M143.36 53.9891H137.319C136.4 49.4506 139.359 38.1879 135.359 37.5009C132.441 36.9943 130.686 39.548 129.318 41.3315V53.9891H123.44V33.6773H129.318V37.147C130.842 35.5995 133.169 33.3372 136.339 33.1499C138.693 33.0041 141.387 33.9687 142.543 35.9812C145.101 40.4432 142.319 47.9587 143.36 53.9891Z" fill="#DA0E15"/>
<path fill-rule="evenodd" clip-rule="evenodd" d="M115.91 33.6771V53.9889H110.032C110.141 47.2715 109.814 40.11 110.195 33.6702L115.91 33.6771Z" fill="#DA0E15"/>
<path fill-rule="evenodd" clip-rule="evenodd" d="M50.1315 44.6694C50.322 45.3634 48.3219 47.1607 47.6825 48.1392C44.8456 48.3543 42.6686 47.7852 40.6618 48.4722C38.8045 49.0968 37.4235 51.9836 36.2534 53.4687C34.8928 55.2174 33.09 57.8266 31.4913 57.9654C28.5048 58.2222 25.8516 53.6976 23.8175 52.6359C23.9128 50.2349 23.6134 47.4313 23.9808 45.3079C25.4026 45.6756 26.1441 46.6958 27.2462 47.6395C27.8789 48.1739 29.3484 49.9573 30.3484 49.9712C32.3893 49.9712 33.5526 45.641 35.5731 44.8082C39.8862 43.0664 44.6959 45.6965 50.1315 44.6694Z" fill="#4C555B"/>
</g>
<defs>
<clipPath id="clip0">
<rect width="162" height="58" fill="white"/>
</clipPath>
</defs>
</svg>

<svg width="162" height="58" fill="none" xmlns="http://www.w3.org/2000/svg"><g clip-path="url(#clip0)"><path fill-rule="evenodd" clip-rule="evenodd" d="M32.825 12.692c-1.361-.444-2.123-1.388-3.266-2.331-.633-.528-2.04-2.346-3.102-2.332-1.953 0-3.327 4.92-5.551 5.33-4.313.784-8.844-.23-14.042 0-.19-.882 1.647-2.527 2.45-3.47 2.197-.201 4.952.381 6.857-.333C19.348 8.362 21.763.923 25.314.062c1.19-.291 3.3 1.583 4.245 2.332a23.806 23.806 0 013.402 2.998c-.048 2.373.224 5.17-.136 7.3zM44.09 6.863a35.665 35.665 0 013.402 2.831c.252 2.734-.415 4.983.163 6.995.538 1.874 3.34 3.47 4.762 4.664 1.79 1.52 4.232 3.108 4.409 4.857.326 3.241-4.157 5.67-5.225 7.828-2.36-.146-5.34.333-7.184-.333.408-1.388 1.36-2.082 2.286-3.164.558-.695 2.265-2.138 2.286-3.165.034-2.082-4.082-3.386-4.898-5.496a7.06 7.06 0 01-.327-2.165c-.116-3.636.354-8.75.326-12.852zm84.902 2.832c5.578-1.187 9.435 4.052 6.857 9.493-.83 1.742-3.299 2.963-5.061 2.998-4.443.09-8.014-5.344-5.225-10.16a4.726 4.726 0 011.449-1.572 4.618 4.618 0 011.98-.76zm-.49 9.826c5.694 4.274 8.327-9.667 1.143-7.828-2.783.708-3.429 6.114-1.143 7.828zm-62.86-9.826h7.837v1.998h-5.388c-.38.61-.061 1.936-.163 2.831 1.265.375 3.197.063 4.762.167v1.998h-4.572c-.38.695-.054 2.159-.163 3.165h5.878v1.998h-8.164l-.027-12.157zm10.13 0h2.45c.972 3.004 2.19 5.76 3.101 8.827 1.218-2.81 2.204-5.857 3.266-8.827h2.449c-1.395 4.163-3.055 8.098-4.572 12.157h-2.122c-1.538-4.052-3.211-7.966-4.572-12.157zm13.708 0h7.837v1.998H91.93c-.38.61-.054 1.936-.163 2.831 1.265.375 3.197.063 4.762.167v1.998h-4.572c-.38.695-.054 2.159-.163 3.165h5.878v1.998h-8.164L89.48 9.695zm11.265-.001c2.878.063 6.919-.437 8.327 1.333 1.409 1.77.878 5.288-2.122 5.829 1.075 1.728 2.435 3.178 3.401 4.996h-2.775c-1.483-1.485-1.721-4.24-4.245-4.663-.722.93-.136 3.192-.327 4.663h-2.286l.027-12.158zm2.286 5.496c2.456.257 5.014-.18 4.082-2.83-.775-.82-2.503-.695-4.082-.695v3.525zm8.98-5.495h2.613c.857 1.783 1.986 3.296 2.938 4.996a48.771 48.771 0 003.103-4.996h2.612c-1.674 3.9-5.442 5.683-4.572 12.157h-2.285c.898-6.474-2.762-8.285-4.409-12.157zm27.593 0h2.286c2.273 2.567 3.987 5.697 6.041 8.494V9.695h2.286v12.157c-.748-.2-1.503.257-2.286 0-1.19-.402-2.34-3.074-3.102-4.163-1.197-1.7-2.122-3.116-2.939-4.33v8.493h-2.286V9.695zm14.042 0h7.844v1.998h-5.388c-.381.61-.061 1.936-.163 2.831 1.265.375 3.197.063 4.762.167v1.998h-4.572c-.381.695-.054 2.159-.163 3.165h5.878v1.998h-8.164l-.034-12.157z" fill="#4C555B"/><path fill-rule="evenodd" clip-rule="evenodd" d="M26.947 15.357c1.72-.458 3.238 1.388 4.571 2.498 1.334 1.11 2.245 1.999 3.592 3.165 1.953 1.693 6.701 4.746 6.858 6.828.115 1.582-1.606 3.116-2.613 4.33-2.415 2.908-3.857 4.705-6.204 7.495-.864 1.02-2.204 3.06-3.592 3.164-1.497.104-3.32-1.86-4.245-2.665-2.476-2.165-4.565-4.094-7.347-6.495-1.116-.964-3.041-2.255-3.102-3.664-.103-2.158 4.251-5.954 5.55-7.495 1.178-1.387 2.042-2.595 2.94-3.663.768-.916 2.143-3.123 3.592-3.498z" fill="#DA0E15"/><path fill-rule="evenodd" clip-rule="evenodd" d="M5.232 24.184c2.415.09 5.251-.25 7.183.333-.4 1.388-1.36 2.151-2.285 3.331-.51.625-2.313 2.137-2.286 3.164.04 1.777 4.653 3.782 5.225 5.663 1.36 4.504-.912 8.813 0 14.323-.864.194-2.477-1.68-3.402-2.498-.19-2.776.306-5.031-.326-6.995-.565-1.763-3.32-3.47-4.763-4.663C2.79 35.364.143 33.837.007 31.984c-.15-1.97 4.082-6.1 5.225-7.8z" fill="#4C555B"/><path d="M112.991 31.103c2.296 0 4.157-1.423 4.157-3.179 0-1.755-1.861-3.178-4.157-3.178-2.296 0-4.157 1.423-4.157 3.178 0 1.756 1.861 3.179 4.157 3.179z" fill="#DA0E15"/><path fill-rule="evenodd" clip-rule="evenodd" d="M66.132 26.516c7.388.458 16.933-1.54 19.43 3.664 1.483 3.095.585 7.501-1.307 9.66-2.66 3.032-7.537 3.518-12.245 3.47v10.68h-6.041c.109-9.099-.218-18.647.163-27.474zM78.541 37.84c1.728-1.735 1.905-5.461-.327-6.828-1.456-.896-3.517-.597-6.04-.694-.382 2.72-.055 6.162-.164 9.16 2.66.048 4.932-.063 6.53-1.638zm78.187-8.14v3.831c1.252.389 3.211.056 4.762.167v3.47h-4.572c.075 5.176-2.217 15.87 4.899 13.323.374.778.054 2.27.163 3.331-3.626 1.062-7.98.868-9.96-1.499-2.667-3.192-.36-9.715-1.143-14.989-.496-.389-1.687-.062-2.449-.166v-3.47h2.449v-3.47c2.13-.035 3.81-.493 5.851-.527zm-51.411 3.644v4.858a6.763 6.763 0 00-4.602.024 6.923 6.923 0 00-3.561 2.974v12.789h-5.878V33.677h5.878v3.47c1.496-1.735 4.163-4.6 8.163-3.803zM143.36 53.99h-6.041c-.919-4.54 2.04-15.802-1.96-16.49-2.918-.506-4.673 2.048-6.041 3.831V53.99h-5.878V33.677h5.878v3.47c1.524-1.547 3.851-3.81 7.021-3.997 2.354-.146 5.048.819 6.204 2.831 2.558 4.462-.224 11.978.817 18.008zm-27.45-20.313V53.99h-5.878c.109-6.717-.218-13.879.163-20.319l5.715.007z" fill="#DA0E15"/><path fill-rule="evenodd" clip-rule="evenodd" d="M50.132 44.67c.19.693-1.81 2.49-2.45 3.47-2.836.214-5.013-.355-7.02.332-1.858.625-3.239 3.512-4.409 4.997-1.36 1.748-3.163 4.358-4.762 4.496-2.986.257-5.64-4.267-7.674-5.33.096-2.4-.204-5.204.164-7.327 1.422.368 2.163 1.388 3.265 2.331.633.535 2.102 2.318 3.102 2.332 2.041 0 3.205-4.33 5.225-5.163 4.313-1.742 9.123.889 14.559-.139z" fill="#4C555B"/></g><defs><clipPath id="clip0"><path fill="#fff" d="M0 0h162v58H0z"/></clipPath></defs></svg>
